X:971
T:There Grows A Bonnie Brier Bush
C:Joe Buchanan's Scottish Tome - Page 564.1
I:564 1
Z:Carl Allison
R:Waltz
L:1/4
M:3/4
K:G
D | "G"D2 D | "G"D2 E | "G"D2 E | "G"G2 D | "A7"E3 | "A7"A2 B | "D7"A3 | "Em"G "Cm"A "G"B |
"G"D2 D | "G"D2 E | "G"D2 E | "G"G2 D | "C"E3 | C"m"G2 A | "G"G3- | G "D7"A B |
"D7"c2 d | "D7"e2 c | "G"B2 c | "E7"d2 B | "Am"c2 B | "A"A2 G | "D7"B A2 | "Em"G "Cm"A "G"B |
"G"D2 D | "G"D2 E | "G"D2 E | "G"G2 D | "C"E3 | "Cm"G2 A | G3- | "G"G2 |]

